X: 992
T: The humors of Kilkenny
C: anon.
O: Ireland
B: Francis O'Neill: "The Dance Music of Ireland" (1907) no. 992
Z: Transcribed by Frank Nordberg - http://www.musicaviva.com
F: http://www.musicaviva.com/abc/tunes/ireland/oneill-1001/oneill-1001-099
2.abc
M: 6/8
L: 1/8
K: G
c|:B>GG G2B|ded d2c|BGG GBd|e3g3|GBd gfe|edc cBA|BGE EDE|c3 edc:|
|:BGE EDE|GED D2c|BGE EDE|c3 edc|BGE EDE|GED D2c|BAG AGF|G3 "^1)"G3:|
W:
W:
W: 1) org. not dotted.
W:
W:
W: From Musica Viva - http://www.musicaviva.com
W: the Internet center for free sheet music downloads.


